X:1
T:Fantastic -- Hornpipe
R:hornpipe
B:Cole's 1000 Fiddle Tunes
M:C|
L:1/8
K:Bb
(uBc)|d>^cd>c d>=cB>A|G>^FG>A B>AB>c|\
d>AB>d g>fd>B|((3cdc) ((3BAG) F2(uBc)|
d>^cd>c d>=cB>A|G>^FG>A B>ba>g|\
f>de>c d>Bc>A|B2d2B2:|
|:(uAB)|c>=Bc>d e>de>f|d>_Bd>f b2f2|\
g>^fg>"1"a "2"b>"1"a"2"b>"3"c'|"4"d'>"3"c'"2"b>"1"a "2"g>f=e>_e|
d>^cd>c d>=cB>A|G>^FG>A B>ba>g|\
f>de>c d>Bc>A|B2d2B2:|
